X:767
T:Waters of Kylesku, The 
C:Joe Buchanan's Scottish Tome - Page 528.4
I:528 4
Z:Carl Allison
R:Slow Air
L:1/4
M:3/4
K:D
A | "D"F2 E | "Bm"D2 F | "D"A2 A | "D7"F2 A | "G"d2 d | "A"c2 B | "D"A3- | A2 F |
"D"A2 A | "G"B2 A | "D"A2 F | "Bm"D2 F | "D"A2 A | "Em"G2 F | "A7"E3- | E2 A |
"D"F2 E | "Bm"D2 F | "D"A2 A | "D7"F2 A | "G"d2 d | "A"c2 B | "D"A3- | A2 F |
"D"A2 A | "G"B2 c | "Bm"d2 B | "D"A2 G | "D"F A2 | "A7"F2 E | "D"D3- | D2 |
W:Errata: Added the "Bm", "D", "D", "A7" and "D" chords in last line.

